resources/svg/signin.svg

<svg width="15" height="15" viewBox="0 0 15 15" fill="none" xmlns="http://www.w3.org/2000/svg">
<path fill-rule="evenodd" clip-rule="evenodd" d="M7 1L14 1V14H7V13H13V2L7 2V1ZM7.85355 4.14645L11.1932 7.48614L7.8674 11.0891L7.13259 10.4109L9.358 8L0.999996 8V7L9.29289 7L7.14644 4.85355L7.85355 4.14645Z" fill="black"/>
</svg>

<svg viewBox="0 0 15 15" fill="none" xmlns="http://www.w3.org/2000/svg" fill="currentColor"><path fill-rule="evenodd" clip-rule="evenodd" d="M7 1h7v13H7v-1h6V2H7V1zm.854 3.146l3.34 3.34-3.327 3.603-.734-.678L9.358 8H1V7h8.293L7.146 4.854l.708-.708z" fill="currentColor"/></svg>
